X:409
T:Laura and Filon
M:3/4
L:1/4
C:Traditional Polish Folk Song
S:Colin Hume's website,  colinhume.com  - chords can also be printed below the stave.
%%MIDI program 68     Oboe
%%MIDI chordprog 73   Flute
%%MIDI bassprog 73    Flute
%%MIDI beat 100 95 80
Q:1/4=120
K:G
P:A
[| "G"GFG | "G"D2D | "C"EC3/E/ | "G"E2D | "G"GFG | "D"A2D | "C"c2 B | "D"A3 |
P:B
|: "C"cB "D7"A | "G"B2G | "C"FG3/E/ | "G"E2D | "D"DEF | "Em"G2 "C"c | "G/D"B2 "D"A |1 "G7"d3 :|2 "G"G3 |]

